X:11
T:Merry Christmas
Q:1/2=85
R: Richmond Ball 1790
M:C/
K:Bb
L:1/4
P:A
|:"F"c (3c/d/e/ "Bb"dB|"F"A/B/c/A/ "Bb"BF|\
"F"c "Bb"(3c/d/e/ dB|"F"A/B/c/A/ "Bb"B2:|
P:B
|:"Bb"B,B, "F"CC|"F"F/G/F/E/ "Bb"DB,|\
"F"c "Bb"(3c/d/e/ dB|"F"A/B/c/A/ "Bb"B2:|
P:C
|:"Bb"b/a/g/f/ e/d/c/B/|"F"A/B/c/A/ "Bb"BF|\
"F"c "Bb"(3c/d/e/ dB|"F"A/B/c/A/ "Bb"B2:|
W:
W: A1  All take hands on sides and set twice.
W: A2  1st and 2nd couples take inside hands, face other couple to set twice
W: B1&2 1st couple cross over two couples, lead up middle and cast off
W: C1&2 1st and 2nd couple right-and-left
